X: 30551
T: CROTCHET LODGE
C:
%R: reel
B: Elias Howe "The Musician's Companion" Part 3 1844 p.55 #1
S: http://imslp.org/wiki/The_Musician's_Companion_(Howe,_Elias)
S: https://archive.org/stream/firstthirdpartof03howe/#page/66/mode/1up
Z: 2015 John Chambers <jc:trillian.mit.edu>
M: 2/4
L: 1/16
K: G
% - - - - - - - - - - - - - - - - - - - - - - - - -
|:\
gaba agfe | edcd edcB | cAAB cAGB | cAAB cAA2 |\
gaba agfe | edcd ecBA | BGGA BGGA | BGGA BAG2 :|
|:\
GBdB dBdB | ecec dBdB | gedB gedB | cAAB cAA2 |\
GBdB dBdB | ecec dBdB | gedB gedB | cAdc BGG2 :|
|:\
Bdgd gdad | bagf gfed | edef gedB | cAAB cAA2 |\
Bdgd gfad | bagf gfed | edef gedB | cAdc BGG2 :|
% - - - - - - - - - - - - - - - - - - - - - - - - -
